assets/icons/utility/deprecate.svg

<?xml version="1.0"?><svg xmlns="http://www.w3.org/2000/svg" width="52" height="52" viewBox="0 0 52 52"><path fill="#fff" d="m48 7h-44c-1.1 0-2 0.9-2 2v26c0 1.1 0.9 2 2 2h16.2c1 5.7 5.9 10 11.8 10s10.9-4.3 11.8-10h4.2c1.1 0 2-0.9 2-2v-26c0-1.1-0.9-2-2-2z m-8.6 32.6l-2.8 2.8-4.6-4.6-4.6 4.6-2.8-2.8 4.6-4.6-4.6-4.6 2.8-2.8 4.6 4.6 4.6-4.6 2.8 2.8-4.6 4.6 4.6 4.6z m6.6-6.6h-2.2c-1-5.7-5.9-10-11.8-10s-10.9 4.3-11.8 10h-14.2v-22h40v22z"></path></svg>

<svg xmlns="http://www.w3.org/2000/svg" x="0px" y="0px"
	 width="52px" height="52px" viewBox="0 0 52 52" enable-background="new 0 0 52 52" xml:space="preserve">
<path fill="#FFFFFF" d="M48,7H4C2.9,7,2,7.9,2,9v26c0,1.1,0.9,2,2,2h16.2c1,5.7,5.9,10,11.8,10s10.9-4.3,11.8-10H48c1.1,0,2-0.9,2-2
	V9C50,7.9,49.1,7,48,7z M39.4,39.6l-2.8,2.8L32,37.8l-4.6,4.6l-2.8-2.8l4.6-4.6l-4.6-4.6l2.8-2.8l4.6,4.6l4.6-4.6l2.8,2.8L34.8,35
	L39.4,39.6z M46,33h-2.2c-1-5.7-5.9-10-11.8-10s-10.9,4.3-11.8,10H6V11h40V33z"/>
</svg>
